packages/katcn/src/icons/svg/mail-solid.svg

<svg width="24" height="24" viewBox="0 0 24 24" fill="none" xmlns="http://www.w3.org/2000/svg">
<path d="M19 20H5C2.8 20 1 18.2 1 16V8C1 5.8 2.8 4 5 4H19C21.2 4 23 5.8 23 8V16C23 18.2 21.2 20 19 20Z" fill="black"/>
<path d="M12 12.6C11.4 12.6 10.7 12.4 10.2 12.1L5.2 9.19999C4.7 8.99999 4.5 8.29999 4.8 7.89999C5 7.39999 5.7 7.19999 6.1 7.49999L11.1 10.4C11.6 10.7 12.3 10.7 12.8 10.4L17.8 7.49999C18.3 7.19999 18.9 7.39999 19.2 7.89999C19.5 8.39999 19.3 8.99999 18.8 9.29999L13.8 12.2C13.3 12.4 12.6 12.6 12 12.6Z" fill="white"/>
</svg>

<svg xmlns="http://www.w3.org/2000/svg" fill="none" viewBox="0 0 24 24"><path fill="#000" d="M19 20H5c-2.2 0-4-1.8-4-4V8c0-2.2 1.8-4 4-4h14c2.2 0 4 1.8 4 4v8c0 2.2-1.8 4-4 4"/><path fill="#fff" d="M12 12.6c-.6 0-1.3-.2-1.8-.5l-5-2.9c-.5-.2-.7-.9-.4-1.3.2-.5.9-.7 1.3-.4l5 2.9c.5.3 1.2.3 1.7 0l5-2.9c.5-.3 1.1-.1 1.4.4s.1 1.1-.4 1.4l-5 2.9c-.5.2-1.2.4-1.8.4"/></svg>
